X:1
T:Pilgrims' Chorus (Tannhäuser)
C:Richard Wagner
M:4/4
L:1/4
Q:1/4=80
K:E
E | EEEB | AGFE | FGAB | B2E2 | EEEB | AGFE | FGAB | E4 | BAGF | EFGA | BAGF | E4 |]
